icons/book-16.svg

<svg xmlns="http://www.w3.org/2000/svg" width="16" height="16" viewBox="0 0 16 16"><path fill-rule="evenodd" d="M0 1.75A.75.75 0 01.75 1h4.253c1.227 0 2.317.59 3 1.501A3.744 3.744 0 0111.006 1h4.245a.75.75 0 01.75.75v10.5a.75.75 0 01-.75.75h-4.507a2.25 2.25 0 00-1.591.659l-.622.621a.75.75 0 01-1.06 0l-.622-.621A2.25 2.25 0 005.258 13H.75a.75.75 0 01-.75-.75V1.75zm8.755 3a2.25 2.25 0 012.25-2.25H14.5v9h-3.757c-.71 0-1.4.201-1.992.572l.004-7.322zm-1.504 7.324l.004-5.073-.002-2.253A2.25 2.25 0 005.003 2.5H1.5v9h3.757a3.75 3.75 0 011.994.574z"/></svg>

<svg xmlns="http://www.w3.org/2000/svg" width="16" height="16" viewBox="0 0 16 16">
  <defs/>
  <path d="M0,1.75 C0,1.336 0.336,1 0.75,1 L5.003,1 C6.23,1 7.32,1.59 8.003,2.501 C8.711,1.555 9.824,0.998 11.006,1 L15.251,1 C15.665,1 16.001,1.336 16.001,1.75 L16.001,12.25 C16.001,12.664 15.665,13 15.251,13 L10.744,13 C10.147,13 9.575,13.237 9.153,13.659 L8.531,14.28 C8.238,14.572 7.764,14.572 7.471,14.28 L6.849,13.659 C6.427,13.237 5.855,13 5.258,13 L0.75,13 C0.336,13 0,12.664 0,12.25 Z M7.251,12.074 L7.255,7.001 L7.253,4.748 C7.252,3.506 6.245,2.5 5.003,2.5 L1.5,2.5 L1.5,11.5 L5.257,11.5 C5.962,11.5 6.654,11.699 7.251,12.074 Z M8.755,4.75 L8.751,12.072 C9.343,11.701 10.033,11.5 10.743,11.5 L14.5,11.5 L14.5,2.5 L11.005,2.5 C9.762,2.5 8.755,3.507 8.755,4.75 Z"/>
</svg>
